src/assets/filled/ShoppingCart.svg

<svg width="24" height="24" viewBox="0 0 24 24"  xmlns="http://www.w3.org/2000/svg">
<path d="M16.25 22.5C17.2165 22.5 18 21.7165 18 20.75C18 19.7835 17.2165 19 16.25 19C15.2835 19 14.5 19.7835 14.5 20.75C14.5 21.7165 15.2835 22.5 16.25 22.5Z" />
<path d="M8.25 22.5C9.2165 22.5 10 21.7165 10 20.75C10 19.7835 9.2165 19 8.25 19C7.2835 19 6.5 19.7835 6.5 20.75C6.5 21.7165 7.2835 22.5 8.25 22.5Z" />
<path d="M4.84 3.94L4.64 6.39C4.6 6.86 4.97 7.25 5.44 7.25H20.75C21.17 7.25 21.52 6.93 21.55 6.51C21.68 4.74 20.33 3.3 18.56 3.3H6.27C6.17 2.86 5.97 2.44 5.66 2.09C5.16 1.56 4.46 1.25 3.74 1.25H2C1.59 1.25 1.25 1.59 1.25 2C1.25 2.41 1.59 2.75 2 2.75H3.74C4.05 2.75 4.34 2.88 4.55 3.1C4.76 3.33 4.86 3.63 4.84 3.94Z" />
<path d="M20.5101 8.75H5.17005C4.75005 8.75 4.41005 9.07 4.37005 9.48L4.01005 13.83C3.87005 15.54 5.21005 17 6.92005 17H18.0401C19.5401 17 20.8601 15.77 20.9701 14.27L21.3001 9.6C21.3401 9.14 20.9801 8.75 20.5101 8.75Z" />
</svg>

<?xml version="1.0" encoding="UTF-8"?>
<svg width="24" height="24" viewBox="0 0 24 24" xmlns="http://www.w3.org/2000/svg">
 <path d="m16.25 22.5c0.9665 0 1.75-0.7835 1.75-1.75s-0.7835-1.75-1.75-1.75-1.75 0.7835-1.75 1.75 0.7835 1.75 1.75 1.75z"/>
 <path d="m8.25 22.5c0.9665 0 1.75-0.7835 1.75-1.75s-0.7835-1.75-1.75-1.75-1.75 0.7835-1.75 1.75 0.7835 1.75 1.75 1.75z"/>
 <path d="m4.84 3.94-0.2 2.45c-0.04 0.47 0.33 0.86 0.8 0.86h15.31c0.42 0 0.77-0.32 0.8-0.74 0.13-1.77-1.22-3.21-2.99-3.21h-12.29c-0.1-0.44-0.3-0.86-0.61-1.21-0.5-0.53-1.2-0.84-1.92-0.84h-1.74c-0.41 0-0.75 0.34-0.75 0.75s0.34 0.75 0.75 0.75h1.74c0.31 0 0.6 0.13 0.81 0.35 0.21 0.23 0.31 0.53 0.29 0.84z"/>
 <path d="m20.51 8.75h-15.34c-0.42 0-0.76 0.32-0.8 0.73l-0.36 4.35c-0.14 1.71 1.2 3.17 2.91 3.17h11.12c1.5 0 2.82-1.23 2.93-2.73l0.33-4.67c0.04-0.46-0.32-0.85-0.79-0.85z"/>
</svg>
